X: 222
T: Cary Owen
R: jig
M: 6/8
L: 1/8
Z: 2012 John Chambers <jc:trillian.mit.edu>
B: J. Anderson "Budget of Strathspeys, Reels and Country Dances" (Early 1800s) p.22 #2
F: http://imslp.org/wiki/Anderson%27s_Budget_of_Strathspeys,_Reels_and_Country_Dances_(Various)
K: G
g |\
edc BAG | BcB B2g | edc BAG | ABA A2g |\
edc BAG | BcB B2e | def gdB | ABA A2 :||: (B/c/) |
(B/c/d) B d2B | d2B d2g | (c/d/e) c e2c | e2d e2f |\
g2a b2a | g2e d2B | def gdB | ABA A2 :|

%%sep 2 1 500
%%sep 1 1 500

